svg/client1.svg

<svg width="42" height="51" viewBox="0 0 42 51" fill="none" xmlns="http://www.w3.org/2000/svg">
<path d="M6 0L13.3076 6.91796H33.6924V26.2158L41 33.1338V0H6Z" fill="#AFB1B8"/>
<path d="M0 6.62646V38.8137H34V26.0195L13.5231 6.63443L0 6.62646ZM27.5231 34.1055H5.38008V12.4579H6.9453V32.6397H27.5231V34.1055Z" fill="#AFB1B8"/>
<path d="M7.521 46.1299L8.33887 44.4453H9.02246L7.83105 46.6914V48H7.21094V46.6914L6.01709 44.4453H6.70312L7.521 46.1299ZM11.0317 47.1724H9.65479L9.3667 48H8.72461L10.0674 44.4453H10.6216L11.9668 48H11.3223L11.0317 47.1724ZM9.82812 46.6743H10.8584L10.3433 45.1997L9.82812 46.6743ZM13.4658 47.0405C13.4658 46.8761 13.5106 46.7256 13.6001 46.5889C13.6896 46.4505 13.8662 46.2869 14.1299 46.0981C13.9915 45.924 13.8947 45.7759 13.8394 45.6538C13.7856 45.5317 13.7588 45.4137 13.7588 45.2998C13.7588 45.0215 13.8434 44.8018 14.0127 44.6406C14.182 44.4779 14.4098 44.3965 14.6963 44.3965C14.9551 44.3965 15.1667 44.473 15.3311 44.626C15.4971 44.7773 15.5801 44.9653 15.5801 45.1899C15.5801 45.3381 15.5426 45.4748 15.4678 45.6001C15.3929 45.7238 15.27 45.8475 15.0991 45.9712L14.8574 46.147L15.5435 46.9575C15.6427 46.7622 15.6924 46.5449 15.6924 46.3057H16.2075C16.2075 46.7435 16.105 47.1024 15.8999 47.3823L16.4224 48H15.7339L15.5337 47.7632C15.2798 47.9536 14.9771 48.0488 14.6255 48.0488C14.2739 48.0488 13.9924 47.9561 13.7808 47.7705C13.5708 47.5833 13.4658 47.34 13.4658 47.0405ZM14.6426 47.5752C14.8428 47.5752 15.0299 47.5085 15.2041 47.375L14.4277 46.4595L14.3521 46.5132C14.1567 46.6613 14.0591 46.8306 14.0591 47.021C14.0591 47.1854 14.112 47.3188 14.2178 47.4214C14.3236 47.5239 14.4652 47.5752 14.6426 47.5752ZM14.3154 45.2852C14.3154 45.4219 14.3993 45.5936 14.5669 45.8003L14.8379 45.6147L14.9136 45.5537C15.0145 45.4642 15.0649 45.3494 15.0649 45.2095C15.0649 45.1167 15.0299 45.0378 14.96 44.9727C14.89 44.9059 14.8013 44.8726 14.6938 44.8726C14.5783 44.8726 14.4863 44.9116 14.418 44.9897C14.3496 45.0679 14.3154 45.1663 14.3154 45.2852ZM20.7729 46.8428C20.7371 47.222 20.5972 47.5182 20.353 47.7314C20.1089 47.943 19.7842 48.0488 19.3789 48.0488C19.0957 48.0488 18.8459 47.9821 18.6294 47.8486C18.4146 47.7135 18.2485 47.5223 18.1313 47.2749C18.0142 47.0275 17.9531 46.7402 17.9482 46.4131V46.0811C17.9482 45.7458 18.0076 45.4504 18.1265 45.1948C18.2453 44.9393 18.4154 44.7424 18.6367 44.604C18.8597 44.4657 19.1169 44.3965 19.4082 44.3965C19.8005 44.3965 20.1162 44.5031 20.3555 44.7163C20.5947 44.9295 20.7339 45.2306 20.7729 45.6196H20.1577C20.1284 45.3641 20.0535 45.1802 19.9331 45.0679C19.8143 44.9539 19.6393 44.897 19.4082 44.897C19.1396 44.897 18.9329 44.9954 18.7881 45.1924C18.6449 45.3877 18.5716 45.675 18.5684 46.0542V46.3691C18.5684 46.7533 18.6367 47.0462 18.7734 47.248C18.9118 47.4499 19.1136 47.5508 19.3789 47.5508C19.6214 47.5508 19.8037 47.4963 19.9258 47.3872C20.0479 47.2782 20.1252 47.0967 20.1577 46.8428H20.7729ZM24.1641 46.3154C24.1641 46.6637 24.1038 46.9697 23.9834 47.2334C23.863 47.4954 23.6904 47.6973 23.4658 47.8389C23.2428 47.9788 22.9857 48.0488 22.6943 48.0488C22.4062 48.0488 22.1491 47.9788 21.9229 47.8389C21.6982 47.6973 21.5241 47.4963 21.4004 47.2358C21.2783 46.9754 21.2165 46.6751 21.2148 46.335V46.1348C21.2148 45.7881 21.2759 45.4821 21.3979 45.2168C21.5216 44.9515 21.695 44.7489 21.918 44.6089C22.1426 44.4673 22.3997 44.3965 22.6895 44.3965C22.9792 44.3965 23.2355 44.4665 23.4585 44.6064C23.6831 44.7448 23.8564 44.945 23.9785 45.207C24.1006 45.4674 24.1624 45.771 24.1641 46.1177V46.3154ZM23.5464 46.1299C23.5464 45.736 23.4715 45.4341 23.3218 45.2241C23.1737 45.0142 22.9629 44.9092 22.6895 44.9092C22.4225 44.9092 22.2134 45.0142 22.062 45.2241C21.9123 45.4325 21.8358 45.7279 21.8325 46.1104V46.3154C21.8325 46.7061 21.9082 47.008 22.0596 47.2212C22.2126 47.4344 22.4242 47.541 22.6943 47.541C22.9678 47.541 23.1777 47.4368 23.3242 47.2285C23.4723 47.0202 23.5464 46.7158 23.5464 46.3154V46.1299Z" fill="#AFB1B8"/>
</svg>

<svg width="42" height="51" fill="none" xmlns="http://www.w3.org/2000/svg"><path d="M6 0l7.308 6.918h20.384v19.298L41 33.134V0H6z" fill="#AFB1B8"/><path d="M0 6.626v32.188h34V26.02L13.523 6.634 0 6.626zm27.523 27.48H5.38V12.457h1.565V32.64h20.578v1.465zM7.521 46.13l.818-1.685h.683l-1.191 2.246V48h-.62v-1.309l-1.194-2.246h.686l.818 1.685zm3.51 1.042H9.656L9.367 48h-.642l1.342-3.555h.555L11.967 48h-.645l-.29-.828zm-1.203-.498h1.03l-.515-1.474-.515 1.474zm3.638.367c0-.165.045-.315.134-.452.09-.139.266-.302.53-.49a2.257 2.257 0 01-.29-.445.876.876 0 01-.081-.354c0-.278.084-.498.254-.66.169-.162.397-.243.683-.243.26 0 .47.076.635.229.166.151.25.34.25.564a.786.786 0 01-.113.41 1.34 1.34 0 01-.369.371l-.242.176.687.81c.099-.195.148-.412.148-.651h.515c0 .438-.102.796-.307 1.076l.522.618h-.688l-.2-.237a1.47 1.47 0 01-.909.286c-.351 0-.633-.093-.844-.279a.932.932 0 01-.315-.73zm1.177.534c.2 0 .387-.067.561-.2l-.776-.916-.076.054c-.195.148-.293.318-.293.508 0 .164.053.298.159.4a.585.585 0 00.425.154zm-.328-2.29c0 .137.084.309.252.515l.27-.185.077-.061a.44.44 0 00.15-.345.312.312 0 00-.104-.236.37.37 0 00-.266-.1.348.348 0 00-.276.117.432.432 0 00-.103.295zm6.458 1.558c-.036.379-.176.675-.42.888-.244.212-.569.318-.974.318-.283 0-.533-.067-.75-.2a1.333 1.333 0 01-.498-.574 2.068 2.068 0 01-.183-.862v-.332c0-.335.06-.63.178-.886.12-.256.29-.453.51-.591.224-.138.48-.207.772-.207.392 0 .708.106.947.32.24.212.379.514.418.903h-.615c-.03-.256-.105-.44-.225-.552-.119-.114-.294-.171-.525-.171-.268 0-.475.098-.62.295-.143.196-.216.483-.22.862v.315c0 .384.069.677.205.879.139.202.34.303.606.303.242 0 .425-.055.547-.164.122-.109.2-.29.232-.544h.615zm3.391-.528c0 .349-.06.655-.18.918-.121.262-.294.464-.518.606-.223.14-.48.21-.772.21-.288 0-.545-.07-.771-.21a1.405 1.405 0 01-.523-.603 2.125 2.125 0 01-.185-.901v-.2c0-.347.06-.653.183-.918.124-.265.297-.468.52-.608.225-.142.482-.212.771-.212.29 0 .546.07.77.21.224.138.397.338.52.6.122.26.183.564.185.91v.198zm-.618-.185c0-.394-.075-.696-.224-.906a.728.728 0 00-.633-.315.731.731 0 00-.627.315c-.15.209-.226.504-.23.886v.205c0 .391.076.693.228.906.153.213.364.32.634.32.274 0 .484-.104.63-.313.148-.208.222-.512.222-.913v-.185z" fill="#AFB1B8"/></svg>
